X:115
T:score20
L:1/8
Q:1/4=96
M:1/8
I:linebreak $
K:Bb
 (F |[M:3/8] d3- | d) (F d | d) (F d |$ d ^c d | f3- | f) (e d | c) (c/=B/ c/d/ |$ c) (c/=B/ c/d/ | %9
 c2 B |[M:2/8] F) z |] %11
